_icons/SVG/485-heatran-shiny.svg

<svg xmlns="http://www.w3.org/2000/svg" width="32" height="32"><path fill="#FFEAA7" d="M17.923 4.542L19 9l7.427-2.702c.774-.282.594-1.424-.229-1.454l-8.275-.302z"/><path fill="#FEF1C6" d="M14.077 4.542L13 9 5.573 6.298c-.774-.282-.594-1.424.229-1.454l8.275-.302z"/><ellipse fill="#FFE28A" cx="29.71" cy="27" rx="1.5" ry="2"/><ellipse fill="#FFE28A" cx="26.71" cy="27" rx="1.5" ry="2"/><ellipse fill="#FFE28A" cx="25.21" cy="25.5" rx="2" ry="1.5"/><path fill="#C23734" d="M24.21 11l6.087 5.218a3 3 0 011.033 1.979l.66 6.593a2 2 0 01-1.986 2.199l-3.227.007a2 2 0 01-1.944-2.485l1.24-4.96a1.002 1.002 0 00-.263-.95l-.6-.6-1-7.001z"/><path fill="#FFE28A" d="M31.86 23.495c-.932.333-2.042.505-3.15.505-1.284 0-2.572-.23-3.581-.676l.496-1.985c.534.31 1.57.661 3.085.661 1.383 0 2.375-.293 2.943-.575l.207 2.07z"/><ellipse fill="#FFE28A" cx="28.71" cy="23" rx="1.5" ry="2"/><path fill="#FCA15E" d="M27.775 14.056c-.762.138-.775.563-.775 1.444 0 1.105 1 1.5 2 1.5.845 0 .974-.288.995-1.041l-2.22-1.903zM26.5 20.5c0 .368.333.5.667.5.333 0 .333-.132.333-.5s0-.5-.5-.5-.5.132-.5.5zM28 19c0 .736.667 1 1.333 1C30 20 30 19.736 30 19s0-1-1-1-1 .264-1 1z"/><ellipse fill="#FFEAA7" cx="29.71" cy="27" rx="1.5" ry="2"/><ellipse fill="#FFEAA7" cx="26.71" cy="27" rx="1.5" ry="2"/><ellipse fill="#FFEAA7" cx="25.21" cy="25.5" rx="2" ry="1.5"/><path fill="#C23734" d="M24.21 11l6.087 5.218a3 3 0 011.033 1.979l.66 6.593a2 2 0 01-1.986 2.199l-3.227.007a2 2 0 01-1.944-2.485l1.24-4.96a1.002 1.002 0 00-.263-.95l-.6-.6-1-7.001z"/><path fill="#FEF1C6" d="M31.86 23.495c-.932.333-2.042.505-3.15.505-1.284 0-2.572-.23-3.581-.676l.496-1.985c.534.31 1.57.661 3.085.661 1.383 0 2.375-.293 2.943-.575l.207 2.07z"/><ellipse fill="#FEF1C6" cx="28.71" cy="23" rx="1.5" ry="2"/><path fill="#FCA15E" d="M27.775 14.056c-.762.138-.775.563-.775 1.444 0 1.105 1 1.5 2 1.5.845 0 .974-.288.995-1.041l-2.22-1.903zM26.5 20.5c0 .368.333.5.667.5.333 0 .333-.132.333-.5s0-.5-.5-.5-.5.132-.5.5zM28 19c0 .736.667 1 1.333 1C30 20 30 19.736 30 19s0-1-1-1-1 .264-1 1z"/><ellipse fill="#FEF1C6" cx="2.29" cy="27" rx="1.5" ry="2"/><ellipse fill="#FEF1C6" cx="5.29" cy="27" rx="1.5" ry="2"/><ellipse fill="#FEF1C6" cx="6.79" cy="25.5" rx="2" ry="1.5"/><path fill="#CF3C35" d="M7.79 11l-6.087 5.218A3 3 0 00.67 18.197L.01 24.79a2 2 0 001.986 2.199l3.227.007a2 2 0 001.944-2.485l-1.24-4.96a1.002 1.002 0 01.263-.95l.6-.6 1-7.001z"/><path fill="#FFF5D8" d="M.14 23.495c.932.333 2.042.505 3.15.505 1.284 0 2.572-.23 3.581-.676l-.496-1.985c-.534.31-1.57.661-3.085.661-1.383 0-2.375-.293-2.943-.575l-.207 2.07z"/><ellipse fill="#FFF5D8" cx="3.29" cy="23" rx="1.5" ry="2"/><path fill="#FFAD68" d="M4.225 14.056c.762.138.775.563.775 1.444C5 16.605 4 17 3 17c-.845 0-.974-.288-.995-1.041l2.22-1.903zM5.5 20.5c0 .368-.333.5-.667.5-.333 0-.333-.132-.333-.5s0-.5.5-.5.5.132.5.5zM4 19c0 .736-.667 1-1.333 1S2 19.736 2 19s0-1 1-1 1 .264 1 1z"/><path fill="#C23734" d="M26 16c0 4.971-4.477 9-10 9S6 20.971 6 16c0-4 4.477-10 10-10s10 6 10 10z"/><path fill="#CF3C35" d="M16 25c-5.523 0-10-4.029-10-9 0-4 4.477-10 10-10v19z"/><circle fill="#FFEAA7" cx="16" cy="16" r="9"/><path fill="#FEF1C6" d="M16 25c-5.523 0-9-4.029-9-9 0-4 4-9 9-9v18z"/><path fill="#5A5353" d="M25 16c0 4.971-2 9-9 9s-9-4.029-9-9c2.5 1 5.75 1.5 9 1.5s6.5-.5 9-1.5z"/><path fill="#635C5C" d="M16 25c-7 0-9-4.029-9-9 2.5 1 5.75 1.5 9 1.5V25z"/><path fill="#6D6666" d="M16 25c-5 0-6-6-6-8.105 1.872.403 3.936.605 6 .605V25z"/><path fill="#746E6E" d="M16 25c-2 0-2.51-5.342-2.51-7.6.828.067 1.669.1 2.51.1V25z"/><path fill="#635C5C" d="M16 25c5 0 6-6 6-8.105-1.872.403-3.936.605-6 .605V25z"/><path fill="#6D6666" d="M16 25c2 0 2.51-5.342 2.51-7.6-.828.067-1.669.1-2.51.1V25z"/><ellipse transform="rotate(-80.003 6.92 16.007)" fill="#FFF5D8" cx="6.92" cy="16.007" rx="1.5" ry="1"/><ellipse transform="rotate(-84.997 10 17.002)" fill="#FFF5D8" cx="10" cy="17.002" rx="1.5" ry="1"/><ellipse fill="#FFF5D8" cx="13.5" cy="17.5" rx="1" ry="1.5"/><ellipse transform="rotate(-10.003 25.086 16.013)" fill="#FEF1C6" cx="25.08" cy="16.007" rx="1" ry="1.5"/><ellipse transform="rotate(-4.997 21.99 16.992)" fill="#FEF1C6" cx="22" cy="17.002" rx="1" ry="1.5"/><ellipse fill="#FEF1C6" cx="18.5" cy="17.5" rx="1" ry="1.5"/><ellipse transform="rotate(-80.003 12 12)" fill="#A53F83" cx="12" cy="12" rx="3" ry="2"/><ellipse transform="rotate(-80.003 12 12)" fill="#373F3F" cx="12" cy="12" rx="2" ry="1"/><ellipse transform="rotate(-80.003 11.015 11.827)" fill="#FFF" cx="11.015" cy="11.826" rx="1" ry=".5"/><ellipse transform="rotate(-80.003 12.984 12.174)" fill="#FFF" cx="12.985" cy="12.174" rx="1" ry=".5"/><ellipse transform="rotate(-10.003 20.005 12.004)" fill="#9B3A7D" cx="20" cy="12" rx="2" ry="3"/><ellipse transform="rotate(-10.003 20.005 12.004)" fill="#2B3332" cx="20" cy="12" rx="1" ry="2"/><ellipse transform="rotate(-10.003 20.99 11.83)" fill="#F7F7F7" cx="20.985" cy="11.826" rx=".5" ry="1"/><ellipse transform="rotate(-10.003 19.02 12.178)" fill="#F7F7F7" cx="19.015" cy="12.174" rx=".5" ry="1"/><ellipse fill="#FFEAA7" cx="16" cy="8" rx="6" ry="4"/><path fill="#FEF1C6" d="M16 12c-4 0-6-1.6-6-4s2-4 6-4v8z"/><path fill="#FFE28A" d="M22 8c0 2.4-2 4-6 4s-6-1.6-6-4c2 .8 4 1.2 6 1.2s4-.4 6-1.2z"/><path fill="#FFEAA7" d="M16 12c-4 0-6-1.6-6-4 2 .8 4 1.2 6 1.2V12z"/><ellipse fill="#FEF1C6" cx="16" cy="5" rx="3" ry="2"/><path fill="#FFF5D8" d="M16 7c-2 0-3-.8-3-2s1-2 3-2v4z"/></svg>

<?xml version="1.0" encoding="utf-8"?>
<!-- Generator: Adobe Illustrator 23.0.6, SVG Export Plug-In . SVG Version: 6.00 Build 0)  -->
<svg version="1.1" xmlns="http://www.w3.org/2000/svg" xmlns:xlink="http://www.w3.org/1999/xlink" x="0px" y="0px" width="32px"
	 height="32px" viewBox="0 0 32 32" enable-background="new 0 0 32 32" xml:space="preserve">
<g id="labels">
</g>
<g id="icons">
	<g>
		<path fill="#FFEAA7" d="M17.923,4.542L19,9l7.427-2.702c0.774-0.282,0.594-1.424-0.229-1.454L17.923,4.542z"/>
		<path fill="#FEF1C6" d="M14.077,4.542L13,9L5.573,6.298C4.799,6.016,4.979,4.874,5.802,4.844L14.077,4.542z"/>
		<g>
			<ellipse fill="#FFE28A" cx="29.71" cy="27" rx="1.5" ry="2"/>
			<ellipse fill="#FFE28A" cx="26.71" cy="27" rx="1.5" ry="2"/>
			<ellipse fill="#FFE28A" cx="25.21" cy="25.5" rx="2" ry="1.5"/>
			<path fill="#C23734" d="M24.21,11l6.087,5.218c0.586,0.502,0.956,1.211,1.033,1.979l0.66,6.593
				c0.118,1.176-0.804,2.197-1.986,2.199l-3.227,0.007c-1.303,0.003-2.26-1.221-1.944-2.485l1.24-4.96
				c0.085-0.341-0.015-0.701-0.263-0.95l-0.6-0.6L24.21,11z"/>
			<path fill="#FFE28A" d="M31.86,23.495C30.928,23.828,29.818,24,28.71,24c-1.284,0-2.572-0.23-3.581-0.676l0.496-1.985
				C26.159,21.649,27.195,22,28.71,22c1.383,0,2.375-0.293,2.943-0.575L31.86,23.495z"/>
			<ellipse fill="#FFE28A" cx="28.71" cy="23" rx="1.5" ry="2"/>
			<path fill="#FCA15E" d="M27.775,14.056C27.013,14.194,27,14.619,27,15.5c0,1.105,1,1.5,2,1.5c0.845,0,0.974-0.288,0.995-1.041
				L27.775,14.056z"/>
			<path fill="#FCA15E" d="M26.5,20.5c0,0.368,0.333,0.5,0.667,0.5c0.333,0,0.333-0.132,0.333-0.5s0-0.5-0.5-0.5
				S26.5,20.132,26.5,20.5z"/>
			<path fill="#FCA15E" d="M28,19c0,0.736,0.667,1,1.333,1C30,20,30,19.736,30,19s0-1-1-1S28,18.264,28,19z"/>
		</g>
		<g>
			<ellipse fill="#FFEAA7" cx="29.71" cy="27" rx="1.5" ry="2"/>
			<ellipse fill="#FFEAA7" cx="26.71" cy="27" rx="1.5" ry="2"/>
			<ellipse fill="#FFEAA7" cx="25.21" cy="25.5" rx="2" ry="1.5"/>
			<path fill="#C23734" d="M24.21,11l6.087,5.218c0.586,0.502,0.956,1.211,1.033,1.979l0.66,6.593
				c0.118,1.176-0.804,2.197-1.986,2.199l-3.227,0.007c-1.303,0.003-2.26-1.221-1.944-2.485l1.24-4.96
				c0.085-0.341-0.015-0.701-0.263-0.95l-0.6-0.6L24.21,11z"/>
			<path fill="#FEF1C6" d="M31.86,23.495C30.928,23.828,29.818,24,28.71,24c-1.284,0-2.572-0.23-3.581-0.676l0.496-1.985
				C26.159,21.649,27.195,22,28.71,22c1.383,0,2.375-0.293,2.943-0.575L31.86,23.495z"/>
			<ellipse fill="#FEF1C6" cx="28.71" cy="23" rx="1.5" ry="2"/>
			<path fill="#FCA15E" d="M27.775,14.056C27.013,14.194,27,14.619,27,15.5c0,1.105,1,1.5,2,1.5c0.845,0,0.974-0.288,0.995-1.041
				L27.775,14.056z"/>
			<path fill="#FCA15E" d="M26.5,20.5c0,0.368,0.333,0.5,0.667,0.5c0.333,0,0.333-0.132,0.333-0.5s0-0.5-0.5-0.5
				S26.5,20.132,26.5,20.5z"/>
			<path fill="#FCA15E" d="M28,19c0,0.736,0.667,1,1.333,1C30,20,30,19.736,30,19s0-1-1-1S28,18.264,28,19z"/>
		</g>
		<g>
			<ellipse fill="#FEF1C6" cx="2.29" cy="27" rx="1.5" ry="2"/>
			<ellipse fill="#FEF1C6" cx="5.29" cy="27" rx="1.5" ry="2"/>
			<ellipse fill="#FEF1C6" cx="6.79" cy="25.5" rx="2" ry="1.5"/>
			<path fill="#CF3C35" d="M7.79,11l-6.087,5.218c-0.586,0.502-0.956,1.211-1.033,1.979l-0.66,6.593
				c-0.118,1.176,0.804,2.197,1.986,2.199l3.227,0.007c1.303,0.003,2.26-1.221,1.944-2.485l-1.24-4.96
				c-0.085-0.341,0.015-0.701,0.263-0.95l0.6-0.6L7.79,11z"/>
			<path fill="#FFF5D8" d="M0.14,23.495C1.072,23.828,2.182,24,3.29,24c1.284,0,2.572-0.23,3.581-0.676l-0.496-1.985
				C5.841,21.649,4.805,22,3.29,22c-1.383,0-2.375-0.293-2.943-0.575L0.14,23.495z"/>
			<ellipse fill="#FFF5D8" cx="3.29" cy="23" rx="1.5" ry="2"/>
			<path fill="#FFAD68" d="M4.225,14.056C4.987,14.194,5,14.619,5,15.5C5,16.605,4,17,3,17c-0.845,0-0.974-0.288-0.995-1.041
				L4.225,14.056z"/>
			<path fill="#FFAD68" d="M5.5,20.5c0,0.368-0.333,0.5-0.667,0.5C4.5,21,4.5,20.868,4.5,20.5S4.5,20,5,20S5.5,20.132,5.5,20.5z"/>
			<path fill="#FFAD68" d="M4,19c0,0.736-0.667,1-1.333,1S2,19.736,2,19s0-1,1-1S4,18.264,4,19z"/>
		</g>
		<path fill="#C23734" d="M26,16c0,4.971-4.477,9-10,9S6,20.971,6,16c0-4,4.477-10,10-10S26,12,26,16z"/>
		<path fill="#CF3C35" d="M16,25c-5.523,0-10-4.029-10-9c0-4,4.477-10,10-10V25z"/>
		<circle fill="#FFEAA7" cx="16" cy="16" r="9"/>
		<path fill="#FEF1C6" d="M16,25c-5.523,0-9-4.029-9-9c0-4,4-9,9-9V25z"/>
		<path fill="#5A5353" d="M25,16c0,4.971-2,9-9,9s-9-4.029-9-9c2.5,1,5.75,1.5,9,1.5S22.5,17,25,16z"/>
		<path fill="#635C5C" d="M16,25c-7,0-9-4.029-9-9c2.5,1,5.75,1.5,9,1.5L16,25z"/>
		<path fill="#6D6666" d="M16,25c-5,0-6-6-6-8.105c1.872,0.403,3.936,0.605,6,0.605L16,25z"/>
		<path fill="#746E6E" d="M16,25c-2,0-2.51-5.342-2.51-7.6c0.828,0.067,1.669,0.1,2.51,0.1L16,25z"/>
		<path fill="#635C5C" d="M16,25c5,0,6-6,6-8.105c-1.872,0.403-3.936,0.605-6,0.605L16,25z"/>
		<path fill="#6D6666" d="M16,25c2,0,2.51-5.342,2.51-7.6c-0.828,0.067-1.669,0.1-2.51,0.1L16,25z"/>
		
			<ellipse transform="matrix(0.1736 -0.9848 0.9848 0.1736 -10.045 20.0421)" fill="#FFF5D8" cx="6.92" cy="16.007" rx="1.5" ry="1"/>
		<ellipse transform="matrix(0.0872 -0.9962 0.9962 0.0872 -7.8088 25.4821)" fill="#FFF5D8" cx="10" cy="17.002" rx="1.5" ry="1"/>
		<ellipse fill="#FFF5D8" cx="13.5" cy="17.5" rx="1" ry="1.5"/>
		
			<ellipse transform="matrix(0.9848 -0.1736 0.1736 0.9848 -2.3985 4.5983)" fill="#FEF1C6" cx="25.08" cy="16.007" rx="1" ry="1.5"/>
		<ellipse transform="matrix(0.9962 -0.0872 0.0872 0.9962 -1.3981 1.9821)" fill="#FEF1C6" cx="22" cy="17.002" rx="1" ry="1.5"/>
		<ellipse fill="#FEF1C6" cx="18.5" cy="17.5" rx="1" ry="1.5"/>
		<g>
			<ellipse transform="matrix(0.1736 -0.9848 0.9848 0.1736 -1.9015 21.7339)" fill="#A53F83" cx="12" cy="12" rx="3" ry="2"/>
			<ellipse transform="matrix(0.1736 -0.9848 0.9848 0.1736 -1.9015 21.7339)" fill="#373F3F" cx="12" cy="12" rx="2" ry="1"/>
			
				<ellipse transform="matrix(0.1736 -0.9848 0.9848 0.1736 -2.5443 20.6206)" fill="#FFFFFF" cx="11.015" cy="11.826" rx="1" ry="0.5"/>
			
				<ellipse transform="matrix(0.1736 -0.9848 0.9848 0.1736 -1.2587 22.8473)" fill="#FFFFFF" cx="12.985" cy="12.174" rx="1" ry="0.5"/>
		</g>
		<g>
			<ellipse transform="matrix(0.9848 -0.1736 0.1736 0.9848 -1.7799 3.6553)" fill="#9B3A7D" cx="20" cy="12" rx="2" ry="3"/>
			<ellipse transform="matrix(0.9848 -0.1736 0.1736 0.9848 -1.7799 3.6553)" fill="#2B3332" cx="20" cy="12" rx="1" ry="2"/>
			
				<ellipse transform="matrix(0.9848 -0.1736 0.1736 0.9848 -1.7348 3.8236)" fill="#F7F7F7" cx="20.985" cy="11.826" rx="0.5" ry="1"/>
			
				<ellipse transform="matrix(0.9848 -0.1736 0.1736 0.9848 -1.825 3.4869)" fill="#F7F7F7" cx="19.015" cy="12.174" rx="0.5" ry="1"/>
		</g>
		<g>
			<ellipse fill="#FFEAA7" cx="16" cy="8" rx="6" ry="4"/>
			<path fill="#FEF1C6" d="M16,12c-4,0-6-1.6-6-4s2-4,6-4V12z"/>
			<path fill="#FFE28A" d="M22,8c0,2.4-2,4-6,4s-6-1.6-6-4c2,0.8,4,1.2,6,1.2C18,9.2,20,8.8,22,8z"/>
			<path fill="#FFEAA7" d="M16,12c-4,0-6-1.6-6-4c2,0.8,4,1.2,6,1.2L16,12z"/>
		</g>
		<ellipse fill="#FEF1C6" cx="16" cy="5" rx="3" ry="2"/>
		<path fill="#FFF5D8" d="M16,7c-2,0-3-0.8-3-2s1-2,3-2V7z"/>
	</g>
</g>
</svg>
